X:1
T:Title
%%score ( 1 2 ) { ( 3 5 7 8 ) | ( 4 6 9 ) }
L:1/8
M:4/4
K:C
V:1 treble nm="Akkordion"
V:2 treble 
V:3 treble nm="Grand Piano"
V:5 treble 
V:7 treble 
V:8 treble 
V:4 bass 
V:6 bass 
V:9 bass 
V:1
 z4 z2[Q:1/4=100] E>F | G3 G A3 G | G F3- F z D>F | B3 A GF D>_E |[M:3/4] E6 |[M:1/4] E>E | %6
[M:4/4] E3 A c3 A | c B3- B z c>d | e3 d c2 B2 |[M:3/4] A6 | [FG]>[FG] [Ec]3 [CE] | %11
 [DF][EG] [GB]2 [FA]2 | [FA]>[FA] [^Fd]3 [FA] |[M:2/4] [GB][Ac] [Ac]2 |[M:1/4] [GB]2 | G>G | %16
[M:3/4] [Ge]3 [Fd] [Ec][EG] | [GB]2 [FA]2 [FA]>[FA] | [EG]3 [CE] [EG]<[DF] |[M:2/4] [CE]4 | %20
[M:1/4] [EG]>[EG] |[M:3/4] [Ge]3 [Fd] [Ec][EG] | [GB]2 [FA]2 [_EB][EA] | %23
[M:27/32] z/4 z/4 z/4 z/4 z/4 z/4 z/4 z/4 z/4 z/4 z/4 z/4 z/4 z/4 z/4 z/4 z/ [Fd]/4-[Fd]/4-[Fd]/4-[Fd]/4-[Fd]/4-[Fd]/-<[Fd]/- | %24
[M:5/8] [Fd]3/4 z/4 z z z2 |[M:4/4] z8 | z8 | z8 |[M:7/8] z7 |[M:1/4] z2 | z2 |[M:4/4] z8 | z8 | %33
 z8 |[M:3/4] z6 |] %35
V:2
 x8 | x8 | x8 | x8 |[M:3/4] x6 |[M:1/4] x2 |[M:4/4] x8 | x8 | x8 |[M:3/4] x6 | x6 | x6 | x6 | %13
[M:2/4] x4 |[M:1/4] x2 | x2 |[M:3/4] x6 | x6 | x6 |[M:2/4] x4 |[M:1/4] x2 |[M:3/4] x6 | x6 | %23
[M:27/32] [EG]/4-[EG]/4-[EG]/4-[EG]/4-[EG]/4-[EG]/4-[EG]/4-[EG]/4-[EG]/-<[EG]/[Ec]/-<[Ec]/[DB]/ z/4 z/4 z/4 z/4 z/4 z/4 z/4 z/ | %24
[M:5/8] [Ec]-[Ec]- [Ec]3- |[M:4/4] [Ec]3/4 z/4 z z2 z4 | x8 | x8 |[M:7/8] x7 |[M:1/4] x2 | x2 | %31
[M:4/4] x8 | x8 | x8 |[M:3/4] x6 |] %35
V:3
 z4 z2 E>F | z G, .E2 z2 EG, | z G, .E2 z2[K:treble] FG, | G3 G cA F2 |[M:3/4] G6 | %5
[M:1/4] [^G,DE]>[DE] |[M:4/4][K:bass] z EEE z[K:treble] AAA | z ^GGG[K:bass] z[K:treble] GAB | %8
 z[K:treble] BBB z ^GGG |[M:3/4][K:bass] z[K:treble] A AA AA | [DFG]>[FG][K:bass] z E EE | %11
 z E z[K:treble] F FF | z F z ^F FF |[M:2/4] z A z A |[M:1/4] [DG][DG] | [DFG]>[FG] | %16
[M:3/4] [Ge]3 [FA]2 d | [GB]2 [FA]2 z A | z G GE[K:bass] z F |[M:2/4] z E E[K:treble]E | %20
[M:1/4] G>G |[M:3/4] [Ge]3 [Fd] [Ec]G | [GB]2 [FA]2 BA | %23
[M:27/32][K:bass] z/4 z/4 z/4 z/4 z/4 z/4 z/4 z/4 z/4 z/4 z/4 z/4 z/4 z/4 z/4 z/4 z/ G/4-G/4-G/4-G/4-G/4-G/-<G/- | %24
[M:5/8] G3/4 z/4 z z z2 |[M:4/4] z8[K:treble] | z8 | z4 z2 c2- | %28
[M:7/8] c3/4 z/4 z z z/ D/-D/4 z/4 z/ z/ E/-E/4 z/4 z/ |[M:1/4] z2 | (3:2:2G2 G | %31
[M:4/4] (9:8:8e2- [Ce-]2 [Ce-]/ [Ce]3/2[Gd]/[Gc]/-[Gc]3/2[GB]/ | z2 c2- c3/2-c/4 z/4 z2 | %33
 z4 z [Fd]3- |[M:3/4] [Fd]3/4 z/4 z z2 z2 |] %35
V:4
 z8 | z2 CG, z G, .C2 | z2 B,G, z G, .B,2 | z4 z2 z G, |[M:3/4] C,G, CG, C,2 |[M:1/4] z z/ ^G,/ | %6
[M:4/4] z[K:treble] [A,C][A,C][A,C] z [CE][CE][CE] | z [DE][DE][DE] z [DE][CE][DE] | %8
 z [DE][DE][DE][K:bass] z [DE][DE][DE] |[M:3/4] z [CE] [CE][CE] [CE][CE] | %10
 z z/ D/ z[K:treble] [G,C] [G,C][G,C] | z [G,C] z [A,C] [A,C][A,C] | z [A,C] z [CD] [CD][CD] | %13
[M:2/4] z [CD] z[K:bass] C |[M:1/4] B,B, | z z/ D/ |[M:3/4] C,G, CG, z F | F,,A, CA, z [CF] | %18
 z[K:treble] [CE] [CE][G,C] z [G,B,] |[M:2/4] z [G,C] [G,C][G,C] |[M:1/4] E>E | %21
[M:3/4][K:bass] C,G, CG, z E | F,,A, CA, ^F,,2 |[M:27/32] z27/4[K:treble] | %24
[M:5/8] z[K:bass] C-C/4 z/4 z/ z2 |[M:4/4][K:treble] (5:4:5G2 E/ F/-F3/2-[G,,F-]/ F4- | %26
 F3/2-F/4 z/4 z2[K:bass] (5:4:4[E,G,]2 G,/ C,/- C,2 | z4 z E,- E,/4 z/4 z/ z | %28
[M:7/8] D,2- D,/4 z/4 z/ z/ B,/-B,/4 z/4 z/ z/ C/-C/4 z/4 z/ |[M:1/4] z2 | z2 | %31
[M:4/4] (9:8:8G2- [C,G-]2 [C,G-]/ [C,G]3/2[D,B,]/[E,C]/-[E,C]3/2[E,C]/ | %32
 (5:4:5[F,A,F]2 [F,A,]/ [F,A,F]/-[F,A,F]3/2[F,A,]/ z2 (3:2:2[^F,C_E]2 [^F,CE] | %33
 [CE]3- [CE]/4 z/4 z/ z G,3 |[M:3/4] z6 |] %35
V:5
 x8 | C,4 z4 | G,,4 z4[K:treble] | x8 |[M:3/4] x6 |[M:1/4] x2 | %6
[M:4/4][K:bass] A,,4 A,,4[K:treble] | E,4[K:bass] E,,4[K:treble] | ^G,,4[K:treble] E,4 | %9
[M:3/4][K:bass] A,,6[K:treble] | z2[K:bass] C,4 | C,2 F,,4[K:treble] | F,2 D,4 |[M:2/4] ^F,2 G,2- | %14
[M:1/4] G,2 | x2 |[M:3/4] x6 | z2 z2 F,2 | G,4[K:bass] G,,2 |[M:2/4] C,4[K:treble] |[M:1/4] x2 | %21
[M:3/4] x6 | z2 z2 [C_E]2 | %23
[M:27/32][K:bass] z/4 z/4 z/ G/-<G/G/-<G/G/-<G/G/ z/4 z/4 z/4 z/4 z/4 z/4 z/4 z/ | %24
[M:5/8] z [EG] [CEG]3- |[M:4/4] [CEG]3/4 z/4 z z2[K:treble] (5:4:4D2 D/ D/- D2 | %26
 (5:4:5F2 D/ E/-E3/2-[CE-]/ E4 | (5:4:4[G,CE]2 [G,CE]/ [CEA]/- [CEA]2- [CEA] z ^F2 | %28
[M:7/8] [C^F]2- [B,-CD-F]/<[B,D]/- [B,D-]/>D/ E2 =F- |[M:1/4] F2 | x2 |[M:4/4] x481/60 | %32
 d2 z2 F2- F/4 z/4 z/ z | (3:2:2G4 c2 z4 |[M:3/4] [Ec]6 |] %35
V:6
 x8 | z4 C,4 | z4 D,4 | G,,G,B,G, G,,G, .B,>^F |[M:3/4] x6 |[M:1/4] B,,2 |[M:4/4] x[K:treble] x7 | %7
 x8 | z4[K:bass] E,,4 |[M:3/4] x6 | B,,2 z2[K:treble] z2 | x6 | x6 |[M:2/4] x3[K:bass] x | %14
[M:1/4] x2 | G,2 |[M:3/4] z2 z2 C,2 | z2 z2 F,,2 | G,,4[K:treble] z2 |[M:2/4] x4 |[M:1/4] x2 | %21
[M:3/4][K:bass] z2 z2 C,2 | x6 | %23
[M:27/32] z/4 z/4 z/[K:treble] [CE]/-<[CE]/[CE]/-<[CE]/[CE]/-<[CE]/[B,D]/[B,F]/4-[B,F]/4-[B,F]/4-[B,F]/4-[B,F]/4-[B,F]/-<[B,F]/- | %24
[M:5/8] [B,F]3/4 z/4[K:bass] z C,,3 |[M:4/4][K:treble] z4 (3:2:2[B,,B,]2 [D,B,] [G,B,]2- | %26
 [G,B,]3/4 z/4 z z z/[K:bass] [C,G,]/- [C,G,]/4 z/4 z/ z z2 | %27
 (5:4:4C,2 C,/ A,,/- A,,2- A,,-A,,/4 z/4 z/ D,2 |[M:7/8] z z z2 C2 D- |[M:1/4] D2- | D/4 z/4 z/ z | %31
[M:4/4] x481/60 | z4 [F,A,]2- [F,A,]/4 z/4 z/ z | (3:2:2G,4 [G,E]2 [G,,G,] G,,3- | %34
[M:3/4] [G,,C,-G,-]/>[C,G,]/-[C,G,]- [C,G,]4 |] %35
V:7
 x8 | x8 | x6[K:treble] x2 | x8 |[M:3/4] x6 |[M:1/4] x2 |[M:4/4][K:bass] x5[K:treble] x3 | %7
 x4[K:bass] x[K:treble] x3 | x[K:treble] x7 |[M:3/4][K:bass] x[K:treble] x5 | x2[K:bass] x4 | %11
 x3[K:treble] x3 | x6 |[M:2/4] x4 |[M:1/4] x2 | x2 |[M:3/4] x6 | x6 | x4[K:bass] x2 | %19
[M:2/4] x3[K:treble] x |[M:1/4] x2 |[M:3/4] x6 | x6 | %23
[M:27/32][K:bass] G,,/4-G,,/4-G,,/4-G,,/4-G,,/4-G,,/4-G,,/4-G,,/4-G,,/4-G,,/4-G,,/4-G,,/4-G,,/4-G,,/4-G,,/4-G,,/4-G,,/4-G,,/4-G,,/4-G,,/4-G,,/4-G,,/4-G,,/4-G,,/-<G,,/- | %24
[M:5/8] G,,3/4 z/4 z z z2 |[M:4/4] z2 z z/[K:treble] [B,D]/- [B,D]/4 z/4 z/ z z2 | %26
 z4 (3:2:2C2 C [G,C]2- | [G,C]3/4 z/4 z z2 z [CEA]- [CEA]/4 z/4 z/ z |[M:7/8] D2 G- G- G3- | %29
[M:1/4] G2 | x2 |[M:4/4] x481/60 | (3:2:2z2 F (3:2:2z2 F z2 (3:2:2B2 A | z4 [DB]-[DB]/4 z/4 z/ z2 | %34
[M:3/4] x6 |] %35
V:8
 x8 | x8 | x6[K:treble] x2 | x8 |[M:3/4] x6 |[M:1/4] x2 |[M:4/4][K:bass] x5[K:treble] x3 | %7
 x4[K:bass] x[K:treble] x3 | x[K:treble] x7 |[M:3/4][K:bass] x[K:treble] x5 | x2[K:bass] x4 | %11
 x3[K:treble] x3 | x6 |[M:2/4] x4 |[M:1/4] x2 | x2 |[M:3/4] x6 | x6 | x4[K:bass] x2 | %19
[M:2/4] x3[K:treble] x |[M:1/4] x2 |[M:3/4] x6 | x6 |[M:27/32][K:bass] x27/4 |[M:5/8] C,-C,- C,3- | %25
[M:4/4] C,3/4 z/4 z z2[K:treble] z4 | x8 | x8 |[M:7/8] x7 |[M:1/4] x2 | x2 |[M:4/4] x481/60 | x8 | %33
 x8 |[M:3/4] x6 |] %35
V:9
 x8 | x8 | x8 | x8 |[M:3/4] x6 |[M:1/4] x2 |[M:4/4] x[K:treble] x7 | x8 | x4[K:bass] x4 | %9
[M:3/4] x6 | x3[K:treble] x3 | x6 | x6 |[M:2/4] x3[K:bass] x |[M:1/4] x2 | x2 |[M:3/4] x6 | x6 | %18
 x[K:treble] x5 |[M:2/4] x4 |[M:1/4] x2 |[M:3/4][K:bass] x6 | x6 |[M:27/32] x[K:treble] x23/4 | %24
[M:5/8] x[K:bass] x4 |[M:4/4][K:treble] x8 | x7/2[K:bass] x9/2 | z4 z2 A,2- | %28
[M:7/8] A,3/4 z/4 z G,,- G,,- G,,3- |[M:1/4] G,,2- | G,,/4 z/4 z/ z |[M:4/4] x481/60 | x8 | x8 | %34
[M:3/4] x6 |] %35

